svgs/light/upload.svg

<svg xmlns="http://www.w3.org/2000/svg" viewBox="0 0 512 512"><!--! Font Awesome Pro 6.3.0 by @fontawesome - https://fontawesome.com License - https://fontawesome.com/license (Commercial License) Copyright 2023 Fonticons, Inc. --><path d="M122.6 155.1L240 51.63V368c0 8.844 7.156 16 16 16s16-7.156 16-16V51.63l117.4 104.3C392.4 158.7 396.2 160 400 160c4.406 0 8.812-1.812 11.97-5.375c5.875-6.594 5.25-16.72-1.344-22.58l-144-128c-6.062-5.406-15.19-5.406-21.25 0l-144 128C94.78 137.9 94.16 148 100 154.6S116.1 161.8 122.6 155.1zM448 320h-112c-8.836 0-16 7.162-16 16c0 8.836 7.164 16 16 16H448c17.67 0 32 14.33 32 32v64c0 17.67-14.33 32-32 32H64c-17.67 0-32-14.33-32-32v-64c0-17.67 14.33-32 32-32h112C184.8 352 192 344.8 192 336C192 327.2 184.8 320 176 320H64c-35.35 0-64 28.65-64 64v64c0 35.35 28.65 64 64 64h384c35.35 0 64-28.65 64-64v-64C512 348.7 483.3 320 448 320zM440 416c0-13.25-10.75-24-24-24s-24 10.75-24 24s10.75 24 24 24S440 429.3 440 416z"/></svg>

<svg xmlns="http://www.w3.org/2000/svg" viewBox="0 0 512 512"><!-- Font Awesome Pro 6.0.0-alpha2 by @fontawesome - https://fontawesome.com License - https://fontawesome.com/license (Commercial License) --><path d="M122.625 155.953L240 51.627V368C240 376.844 247.156 384 256 384S272 376.844 272 368V51.627L389.375 155.953C392.406 158.672 396.219 160 400 160C404.406 160 408.812 158.188 411.969 154.625C417.844 148.031 417.219 137.906 410.625 132.047L266.625 4.047C260.562 -1.359 251.437 -1.359 245.375 4.047L101.375 132.047C94.781 137.906 94.156 148.031 100.031 154.625S116.062 161.828 122.625 155.953ZM448 320H336C327.164 320 320 327.162 320 336C320 344.836 327.164 352 336 352H448C465.674 352 480 366.326 480 384V448C480 465.672 465.674 480 448 480H64C46.326 480 32 465.672 32 448V384C32 366.326 46.326 352 64 352H176C184.836 352 192 344.836 192 336C192 327.162 184.836 320 176 320H64C28.654 320 0 348.652 0 384V448C0 483.346 28.654 512 64 512H448C483.346 512 512 483.346 512 448V384C512 348.652 483.346 320 448 320ZM440 416C440 402.75 429.25 392 416 392S392 402.75 392 416S402.75 440 416 440S440 429.25 440 416Z"/></svg>
